X:1
T:Norsk Krigssang
T:Norsk Krigssang
T:Johan Gottfried Conradi
C:Johan Gottfried Conradi
%%score [ 1 2 3 4 ]
L:1/8
Q:1/4=84
M:4/4
K:Bb
V:1 treble-8 nm="T1"
V:2 treble-8 nm="T2"
V:3 bass nm="B1"
V:4 bass nm="B2"
V:1
"^Allegro moderato e energico"!f! F | d2 e c d2 B B | (A>B) c d B2 z z/!ff! d/ | %3
w: I|Sön- ner af Fjel- det, af|Sjö- * en den blaa, I|
 d2 B g f2 =e3/2 d/ | ^c4 d2 z!mf! d | !>!c2 c B A2 A ^F | (G>A) B G A2!f! !>!c2 | %7
w: Sön- ner af Sko- gen den|dun- kle! O|kjæ- re mit Nor- ge, du|Kjæm- * pe, skjöndt graa! vaagn|
 !>!d2 g3/2 g/ f2 d B | c2 d4 z!mf! d | !>!e2 a g ^f2 d c | (B>A) G e d2 z z/!f! d/ | %11
w: op! og lad Øk- ser- ne|fun- kle! o|kjæ- re mit Nor- ge, du|Kjæm- * pe, skjöndt graa! vaagn|
 d6 z z/!ff! d/ | g6 f3/2 f/ | !>!e2 d c (!>!f2 A2) | B2 z2 z2 z z/!ff! b/ | b8- | b2 z2 z2 z |] %17
w: op! vaagn|op! og lad|Øk- ser- ne fun- *|kle! Vaagn|op!|_|
V:2
!f! F | B2 B B B2 B F | F2 F F F2 z z/!ff! B/ | B2 B d d2 A3/2 A/ | A4 A2 z!mf! A | %5
w: I|Sön- ner af Fjel- det, af|Sjö- en den blaa, I|Sön- ner af Sko- gen den|dun- kle! O|
 !>!A2 A B c2 A ^F | (G>^F) G G F2!f! !>!d2 | !>!d2 e3/2 e/ d2 B F | A2 B4 z!mf! d | %9
w: kjæ- re mit Nor- ge, du|Kjæm- * pe, skjöndt graa! vaagn|op! og lad Øk- ser- ne|fun- kle! o|
 !>!e2 e e d2 A A | (G>A) B G ^F2 z z/!f! A/ | B6 z z/!ff! d/ | e6 d3/2 d/ | %13
w: kjæ- re mit Nor- ge, du|Kjæm- * pe, skjöndt graa! vaagn|op! vaagn|op! og lad|
 !>!c2 =B c (!>!_B2 F2) | F2 z2 z2 z z/!ff! d/ | d8- | d2 z2 z2 z |] %17
w: Øk- ser- ne fun- *|kle! Vaagn|op!|_|
V:3
!f! F, | F,2 G, E, F,2 D, D, | (C,>D,) E, F, D,2 z z/!ff! G,/ | G,2 D, B, A,2 G,3/2 F,/ | %4
w: I|Sön- ner af Fjel- det, af|Sjö- * en den blaa, I|Sön- ner af Sko- gen den|
 =E,4 F,2 z!mf! F, | !>!^F,2 F, G, A,2 F, D, | D,2 D, D, D,2!f! !>!A,2 | %7
w: dun- kle! O|kjæ- re mit Nor- ge, du|Kjæm- pe, skjöndt graa! vaagn|
 !>!B,2 B,3/2 B,/ B,2 F, D, | F,2 F,4 z!mf! D, | !>!E,2 C B, A,2 ^F, F, | %10
w: op! og lad Øk- ser- ne|fun- kle! o|kjæ- re mit Nor- ge, du|
 (G,>^F,) G, B, A,2 z z/!f! F,/ | G,6 z z/!ff! B,/ | B,6 B,3/2 B,/ | !>!G,2 F, E, (!>!D,2 C,2) | %14
w: Kjæm- * pe, skjöndt graa! vaagn|op! vaagn|op! og lad|Øk- ser- ne fun- *|
 D,2 z2 z2 z z/!ff! F,/ | F,8- | F,2 z2 z2 z |] %17
w: kle! Vaagn|op!|_|
V:4
!f! F, | B,,2 B,, B,, B,,2 B,, B,, | F,,2 F,, F,, B,,2 z z/!ff! G,,/ | %3
w: I|Sön- ner af Fjel- det, af|Sjö- en den blaa, I|
 G,,2 G,, G,, A,,2 A,,3/2 A,,/ | A,,4 D,2 z!mf! D, | !>!E,2 A, G, ^F,2 D, C, | %6
w: Sön- ner af Sko- gen den|dun- kle! O|kjæ- re mit Nor- ge, du|
 (B,,>A,,) G,, B,, D,2!f! !>!^F,2 | !>!G,2 E,3/2 E,/ F,2 F,, F,, | F,,2 B,,4 z!mf! D, | %9
w: Kjæm- * pe, skjöndt graa! vaagn|op! og lad Øk- ser- ne|fun- kle! o|
 !>!E,2 C, C, D,2 D, D, | (G,>^F,) G, C, D,2 z2 | z2 z2 z z/!f! G,,/ G,3/2!ff! =F,/ | %12
w: kjæ- re mit Nor- ge, du|Kjæm- * pe, skjöndt graa!|vaagn op! vaagn|
 E,6 B,,3/2 B,,/ | !>!C,2 D, E, !>!F,,4 | B,,2 z2 z2 z z/!ff! B,,/ | B,,8- | B,,2 z2 z2 z |] %17
w: op! og lad|Øk- ser- ne fun-|kle! Vaagn|op!|_|

